X: 39012
T: Swallowtail, The
R: jig
M: 6/8
K: Edorian
|:GEE BEE|GEG BAG|FDD ADD|dcd AGF|
GEE BEE|GEG B2c|dcd AGF|1 GED E2F:|2 GED E2A||
|:Bcd e2f|e2f edB|Bcd e2f|edB d2A|Bcd e2f|
[1 e2f edB|dcd AGF|GED E2A:|2 g2f edB|dcd AGF|GED E2F||

